cached_logos/adfolks-kcsp.svg

<svg id="Layer_1" data-name="Layer 1" xmlns="http://www.w3.org/2000/svg" viewBox="-6.740000000000009 6.968649999999997 610.48 87.36"><defs><style>.cls-1,.cls-3{fill:#808184;}.cls-1,.cls-2{fill-rule:evenodd;}.cls-2{fill:#149981;}</style></defs><title>adform</title><path class="cls-1" d="M165.50046,50.86886c0-14.00417-7.65034-23.49209-20.84825-23.49209h-13.6747V74.1306H145.721C158.32693,74.1306,165.50046,64.75519,165.50046,50.86886Zm22.23311-.23036c0,24.18587-16.44715,40.61965-43.43761,40.61965H109.21584V10.13136h35.9105C171.52483,10.13136,187.73357,26.56512,187.73357,50.6385Z"/><path class="cls-1" d="M255.43207,10.13136l-.12053,16.89717H214.88207V45.08021h37.33558V61.9774H214.88207v29.278H193.12312V10.13136Z"/><path class="cls-1" d="M280.36265,50.751A23.17986,23.17986,0,0,0,303.311,74.12792c12.48536,0,22.4742-10.18168,22.4742-23.37691,0-13.19256-9.98884-23.14388-22.4742-23.14388A22.90551,22.90551,0,0,0,280.36265,50.751Zm67.77621-.11251c0,23.72248-19.25979,41.5438-45.06359,41.5438S258.009,74.361,258.009,50.6385c0-23.61265,19.26244-41.08575,45.06628-41.08575S348.13886,27.14371,348.13886,50.6385Z"/><path class="cls-1" d="M375.282,10.13136V73.20377h35.31851V91.25545H353.523V10.13136Z"/><path class="cls-1" d="M470.88713,91.25545,449.24331,59.89338,438.54192,71.468V91.25545H416.78027V10.134h21.76165V44.15608L469.81563,10.134h25.20913L464.11,43.69265l32.81664,47.5628Z"/><path class="cls-1" d="M532.7166,26.44994c-5.23149,0-8.68163,1.851-8.68163,5.5556,0,13.42291,43.87964,5.78328,43.87964,34.94617,0,16.55162-14.98457,25.00023-33.53454,25.00023a69.027,69.027,0,0,1-29.82719-7.39587,47.01339,47.01339,0,0,1-8.58251-5.56632l8.44591-16.54895c8.56109,7.17621,21.52054,12.26573,30.20486,12.26573,6.41813,0,10.463-2.31439,10.463-6.59495,0-13.77114-43.87695-5.44041-43.87695-34.13988,0-15.1614,13.19791-24.76717,33.29078-24.76717,12.24694,0,24.61446,3.70463,33.29339,9.14505l-8.20479,16.77931C550.78974,30.26706,539.61156,26.44994,532.7166,26.44994Z"/><path class="cls-1" d="M591.92905,82.1131c0,5.90382-4.2779,10.0692-10.2246,10.0692a9.66907,9.66907,0,0,1-10.10664-10.0692c0-5.90116,4.16265-9.95134,10.10664-9.95134C587.65115,72.16176,591.92905,76.21194,591.92905,82.1131Z"/><path class="cls-2" d="M79.15826,69.33842V56.62H59.3949c-7.67714,0-11.5157,2.69207-11.5157,8.36823,0,5.52612,4.14393,9.11825,11.20763,9.11825C68.72743,74.1065,72.87138,75.45921,79.15826,69.33842Zm-45.9422-54.431a93.38945,93.38945,0,0,1,32.9318-5.79934c22.87334,0,36.232,10.75761,36.38464,29.2861v52.5934H79.15826s-18.37848.26784-29.58612.26784c-10.688,0-25.58416-9.53343-25.58416-24.32516,0-15.38908,9.4638-24.202,30.03346-24.50465H79.15826v-.892c0-10.61028-8.86377-12.105-19.30264-12.105-6.90834,0-17.71149,2.24206-26.61544,6.42616Z"/><path class="cls-3" d="M5.14875,13.619H12.116v1.30452H9.38108v7.30478H7.873V14.92354H5.14875Z"/><path class="cls-3" d="M14.29914,13.619h2.12155l2.376,6.73958h.02411L21.13517,13.619h2.09742v8.6093H21.79948V15.58518h-.02411L19.386,22.22832H18.14576l-2.38671-6.64314h-.02412v6.64314H14.29914Z"/></svg>

<svg xmlns="http://www.w3.org/2000/svg" role="img" viewBox="-6.73 -2.73 609.96 106.46"><title>Adfolks (KCSP) logo</title><defs><style>.cls-1{fill:#808184;fill-rule:evenodd}</style></defs><path d="M165.5 50.869c0-14.004-7.65-23.492-20.848-23.492h-13.674V74.13h14.743c12.606 0 19.78-9.376 19.78-23.262zm22.234-.23c0 24.185-16.448 40.62-43.438 40.62h-35.08V10.13h35.91c26.399 0 42.608 16.434 42.608 40.508zm67.698-40.508l-.12 16.898h-40.43V45.08h37.336v16.897h-37.336v29.278h-21.759V10.131zm24.931 40.62a23.18 23.18 0 0 0 22.948 23.377c12.485 0 22.474-10.182 22.474-23.377 0-13.193-9.989-23.144-22.474-23.144a22.906 22.906 0 0 0-22.948 23.144zm67.776-.113c0 23.723-19.26 41.544-45.064 41.544S258.01 74.361 258.01 50.638c0-23.612 19.262-41.085 45.066-41.085s45.064 17.59 45.064 41.085zm27.143-40.507v63.073h35.319v18.051h-57.078V10.131zm95.605 81.124l-21.644-31.362-10.701 11.575v19.787H416.78V10.134h21.762v34.022l31.274-34.022h25.209L464.11 43.693l32.817 47.562z" class="cls-1"/><path d="M532.717 26.45c-5.232 0-8.682 1.85-8.682 5.556 0 13.422 43.88 5.783 43.88 34.946 0 16.551-14.985 25-33.535 25a69.027 69.027 0 0 1-29.827-7.396 47.013 47.013 0 0 1-8.583-5.566l8.446-16.55c8.561 7.177 21.52 12.267 30.205 12.267 6.418 0 10.463-2.315 10.463-6.595 0-13.772-43.877-5.44-43.877-34.14 0-15.162 13.198-24.767 33.291-24.767 12.247 0 24.614 3.704 33.293 9.145l-8.204 16.779c-8.797-4.862-19.975-8.68-26.87-8.68zm59.213 55.663c0 5.904-4.279 10.07-10.226 10.07a9.67 9.67 0 0 1-10.106-10.07c0-5.901 4.162-9.951 10.106-9.951 5.947 0 10.225 4.05 10.225 9.951z" class="cls-1"/><path fill="#149981" fill-rule="evenodd" d="M79.158 69.338V56.62H59.395c-7.677 0-11.516 2.692-11.516 8.368 0 5.526 4.144 9.118 11.208 9.118 9.64 0 13.784 1.353 20.071-4.768zm-45.942-54.43a93.39 93.39 0 0 1 32.932-5.8c22.873 0 36.232 10.758 36.385 29.286v52.594H79.157s-18.378.267-29.586.267c-10.688 0-25.584-9.533-25.584-24.325 0-15.389 9.464-24.202 30.033-24.504h25.137v-.892c0-10.61-8.864-12.105-19.302-12.105-6.909 0-17.712 2.242-26.616 6.426z"/><path fill="#808184" d="M5.149 13.619h6.967v1.305H9.381v7.304H7.873v-7.304H5.149zm9.151 0h2.12l2.377 6.74h.024l2.314-6.74h2.098v8.61h-1.434v-6.644h-.024l-2.389 6.643h-1.24l-2.387-6.643h-.024v6.643h-1.436z"/></svg>
